X:1
T:Barcarola
T:Barcarola
T:flautalibre.com
Z:flautalibre.com
L:1/8
M:3/4
K:C
V:1 treble nm="Flute" snm="Fl."
V:1
 ((B4 c2)) | (c4 B2) | (B2 A2 c2) | (c4 B2) | (B2 A2 c2) | (c4 B2) | ((B6 | B6)) | ((B4 c2)) | %9
 (c4 B2) | (B2 A2 c2) | (c4 B2) | (B2 A2 c2) | (c4 B2) | ((G6 | G6)) |] %16

